ix/star-1_broken.svg

<svg viewBox="0 0 24 24" fill="none" xmlns="http://www.w3.org/2000/svg" height="1em" width="1em">
  <path d="M20.1009 8.61001C22.1409 8.95001 22.6209 10.43 21.1509 11.89L18.6709 14.37C18.2509 14.79 18.0209 15.6 18.1509 16.18L18.8609 19.25C19.4209 21.68 18.1309 22.62 15.9809 21.35L12.9909 19.58C12.4509 19.26 11.5609 19.26 11.0109 19.58L8.02089 21.35C5.88089 22.62 4.58089 21.67 5.14089 19.25L5.85089 16.18C5.98089 15.6 5.75089 14.79 5.33089 14.37L2.85089 11.89C1.39089 10.43 1.86089 8.95001 3.90089 8.61001L7.09089 8.08001C7.62089 7.99001 8.26089 7.52002 8.50089 7.03001L10.2609 3.51001C11.2109 1.60001 12.7709 1.60001 13.7309 3.51001L15.4909 7.03001C15.5909 7.24001 15.7709 7.45001 15.9809 7.62001" stroke="#292D32" stroke-width="1.5" stroke-linecap="round" stroke-linejoin="round"/>
</svg>

<svg viewBox="0 0 24 24" fill="none" xmlns="http://www.w3.org/2000/svg" height="1em" width="1em">
  <path d="M20.1 8.61c2.04.34 2.52 1.82 1.05 3.28l-2.48 2.48c-.42.42-.65 1.23-.52 1.81l.71 3.07c.56 2.43-.73 3.37-2.88 2.1l-2.99-1.77c-.54-.32-1.43-.32-1.98 0l-2.99 1.77c-2.14 1.27-3.44.32-2.88-2.1l.71-3.07c.13-.58-.1-1.39-.52-1.81l-2.48-2.48c-1.46-1.46-.99-2.94 1.05-3.28l3.19-.53c.53-.09 1.17-.56 1.41-1.05l1.76-3.52c.95-1.91 2.51-1.91 3.47 0l1.76 3.52c.1.21.28.42.49.59" stroke="#292D32" stroke-width="1.5" stroke-linecap="round" stroke-linejoin="round"/>
</svg>
